X: 383
T: Belles of Lexington
B: jims roots
M:2/4
L:1/8
Q: 1/4=100
K:D
V:1 
(a4 |: "D"a2) fa bafd | efdf edBd | ABdf eafd | "A"e2(e2 e2)(a2 |
"D"a2)fa bafd | dfdf edBA | fedd "A"dBAF | "D"[D2A2] [D2A2] [D4A4] :|
fe |: "D"d2Bd AAFD | EDFE DB, (3G,B,B,  | A,B,Dd BADF |
"A"[EA][A2e2][Ae] [A2e2]fe | "D"d2Bd AAFD | EDFE DB, (3G,B,B, | A,B,DD "A"dBAF |
"D"[D2A2][D2A2] (D4A4]:|
% abcbook-tune_id 6298c24535b8910bc3eccb32


% abcbook-boost 0
% abcbook-tablature 
% abcbook-transpose 
% abcbook-lastupdated 1654178373285
% abcbook-soundfonts 
% abcbook-repeats 1


